X: 1
T: Cuil Aodha, The
M: 12/8
L: 1/8
R: slide
K: Dmaj
|:Bcd Bcd c2A A2A|Bcd e2f g3 efg|a2f gfe f2d A2A|Bcd e2c d3 d3:|
|:a2f gfe f2d A2A|Bcd e2f g3 efg|a2f gfe f2d A2A|Bcd e2c d3 d3:|
